X: 1310
T: The Bridge Splitter
C:John Furlonger, August 2000
B: australian traditional tunes wiki
M:6/8
L:1/8
R: Jig
Q: 3/8=100
K:D
V:1 
"D"a3f3|d3"A"A3|"D"d2Ad2e|faf"A"e2e|"D"a3f3|dfd"A"A3|"D"d2A "A7"cde|"D"d3-d2z|
a3f3|dfd"A"A3|"D"d2Af2d|"A7"g2fe2f|"D"a3f3|dfd"A"A3|"D" d2A "A7"cdf|e3"D"d2z||
"Bm"F2AB2F|d2cB2F|F2AB2F|"A"A2FE3|"Bm"F2AB2F|d2cB2F|F2AB2F|"A7"E3"D"D3|
"Bm"F2AB2F|d2cB2F|F2AB2F|A2F"A"E3|"D"F2A"G"G2B|"A"A2c"D"d2B|"Bm"F2AB2F|"A7"E3"D"D3||
% abcbook-tune_id 6342d53a438a2f140098a3a1


% abcbook-boost 0
% abcbook-tablature 
% abcbook-transpose 
% abcbook-lastupdated 1665324358517
% abcbook-soundfonts 
% abcbook-repeats 1
% NFF Book 2017

